public/style/workarea/images/icons/exe-save-icon.svg

<svg fill="none" height="20" viewBox="0 0 21 20" width="21" xmlns="http://www.w3.org/2000/svg"><g stroke="#6b7280" stroke-linecap="round" stroke-linejoin="round" stroke-width="1.5"><path d="m16.8182 17.5h-11.66667c-.44203 0-.86595-.1756-1.17851-.4882-.31256-.3125-.48816-.7364-.48816-1.1785v-11.66663c0-.44203.1756-.86595.48816-1.17851.31256-.31257.73648-.48816 1.17851-.48816h9.16667l4.1667 4.16667v9.16663c0 .4421-.1756.866-.4882 1.1785-.3126.3126-.7365.4882-1.1785.4882z"/><path d="m15.1514 17.5v-6.6667h-8.33328v6.6667"/><path d="m6.81812 2.5v4.16667h6.66668"/></g></svg>

<svg width="21" height="20" viewBox="0 0 21 20" fill="none" xmlns="http://www.w3.org/2000/svg">
<path d="M16.8182 17.5H5.15153C4.7095 17.5 4.28558 17.3244 3.97302 17.0118C3.66046 16.6993 3.48486 16.2754 3.48486 15.8333V4.16667C3.48486 3.72464 3.66046 3.30072 3.97302 2.98816C4.28558 2.67559 4.7095 2.5 5.15153 2.5H14.3182L18.4849 6.66667V15.8333C18.4849 16.2754 18.3093 16.6993 17.9967 17.0118C17.6841 17.3244 17.2602 17.5 16.8182 17.5Z" stroke="#6B7280" stroke-width="1.5" stroke-linecap="round" stroke-linejoin="round"/>
<path d="M15.1514 17.5V10.8333H6.81812V17.5" stroke="#6B7280" stroke-width="1.5" stroke-linecap="round" stroke-linejoin="round"/>
<path d="M6.81812 2.5V6.66667H13.4848" stroke="#6B7280" stroke-width="1.5" stroke-linecap="round" stroke-linejoin="round"/>
</svg>
